img/icons/experience/university.svg

<svg width="21" height="25" viewBox="0 0 21 25" fill="none" xmlns="http://www.w3.org/2000/svg">
<path d="M17.7169 16.333L16.2497 15.9022L13.0575 13.8172V13.3394C13.9817 12.6423 14.6164 11.5767 14.7343 10.3553C15.1978 10.2807 15.553 9.87789 15.553 9.39371V8.07999C15.553 8.07491 15.5524 8.06993 15.5522 8.06486V6.4007C15.7369 6.26847 15.854 6.05309 15.854 5.81149V4.28854L18.057 3.91329C18.4191 3.85162 18.6794 3.56407 18.705 3.19772C18.7305 2.83136 18.5126 2.51046 18.1626 2.39918L10.736 0.0369751C10.5811 -0.0123413 10.4174 -0.0122925 10.2625 0.0369263L2.83579 2.39918C2.48583 2.51046 2.26787 2.83136 2.2934 3.19767C2.30961 3.43043 2.42084 3.63112 2.59252 3.76256V5.75411H2.57436C2.15615 5.75411 1.81591 6.09435 1.81591 6.51256V7.50113L1.32631 10.3748C1.24169 10.8718 1.62451 11.3267 2.12988 11.3267H3.78754C4.29179 11.3267 4.67592 10.8729 4.59111 10.3747L4.10151 7.50113V6.51256C4.10151 6.09435 3.76127 5.75411 3.34306 5.75411H3.32495V3.97858L5.14594 4.28873V5.81149C5.14594 6.05206 5.26259 6.2671 5.44638 6.39952L5.44707 8.08014V9.39371C5.44707 9.87794 5.80219 10.2807 6.26572 10.3553C6.38364 11.576 7.01762 12.6411 7.94096 13.3383V13.8183L4.74946 15.9029L3.28339 16.3332C1.71459 16.7937 0.606879 18.2339 0.606879 19.9082V20.9996C0.606879 21.2018 0.770795 21.3658 0.97309 21.3658C1.17538 21.3658 1.3393 21.2019 1.3393 20.9996V19.9082C1.3393 18.5886 2.22353 17.4075 3.48969 17.0359L4.85571 16.635L10.313 19.8778C10.4238 19.9436 10.5704 19.9471 10.6872 19.8778L16.1448 16.6348L17.5107 17.0358C18.7767 17.4074 19.6609 18.5885 19.6609 19.9079V23.4449C19.6609 23.8986 19.2918 24.2677 18.8381 24.2677H17.224V22.6892C17.224 22.4869 17.0601 22.323 16.8578 22.323C16.6556 22.323 16.4916 22.4869 16.4916 22.6892V24.2677H4.50683V22.6892C4.50683 22.4869 4.34291 22.323 4.14062 22.323C3.93832 22.323 3.77441 22.4869 3.77441 22.6892V24.2677H2.16196C1.70829 24.2677 1.3392 23.8986 1.3392 23.4449V22.7114C1.3392 22.5092 1.17529 22.3452 0.972992 22.3452C0.770697 22.3452 0.606781 22.5091 0.606781 22.7114V23.4449C0.606781 24.3024 1.30439 25 2.16191 25H18.838C19.6956 25 20.3932 24.3024 20.3932 23.4449V19.9079C20.3932 18.2731 19.3232 16.8046 17.7169 16.333ZM3.78749 10.5943H2.12988C2.07866 10.5943 2.03959 10.5485 2.04828 10.4977L2.49116 7.8983H3.42621L3.86909 10.4977C3.87773 10.5484 3.83896 10.5943 3.78749 10.5943ZM3.36909 6.51256V7.16593H2.54824V6.51256C2.54824 6.49816 2.55991 6.48649 2.57431 6.48649H3.34296C3.35742 6.48644 3.36909 6.49816 3.36909 6.51256ZM9.19028 18.2213L9.33603 18.4453L5.59731 16.2237L7.97041 14.6737C8.07802 15.9364 8.49423 17.1515 9.19028 18.2213ZM9.18774 16.6404C10.0497 16.7629 10.9498 16.763 11.8123 16.6404C11.6456 17.0505 11.4402 17.4462 11.1958 17.8219L10.5 18.8914L9.80415 17.8219C9.55976 17.4462 9.35439 17.0505 9.18774 16.6404ZM11.8097 18.2213C12.5058 17.1515 12.922 15.9364 13.0295 14.6737L15.4026 16.2237L11.664 18.4453L11.8097 18.2213ZM13.9519 6.53707H14.8198V7.71373H14.389C14.1479 7.71373 13.9518 7.51764 13.9518 7.27657V6.53707H13.9519ZM3.05776 3.09713L10.4846 0.734827C10.4941 0.731799 10.5043 0.73175 10.514 0.734876L17.9408 3.09713C17.9561 3.10201 17.9771 3.10865 17.9745 3.14679C17.9718 3.18488 17.95 3.18854 17.9341 3.19127L15.4787 3.60948L14.5568 3.49547C14.3562 3.47062 14.1733 3.61329 14.1484 3.81398C14.1236 4.01471 14.2663 4.19752 14.4669 4.22233L15.1217 4.30333V5.8047L5.87832 5.80436V4.30328L9.66772 3.83439C10.2197 3.76617 10.7792 3.76617 11.3308 3.83439L12.765 4.01178C12.9657 4.03663 13.1486 3.89401 13.1734 3.69332C13.1983 3.49259 13.0557 3.30978 12.855 3.28492L11.4207 3.10753C10.8096 3.0319 10.1894 3.0319 9.57783 3.10753L5.5205 3.60958L3.0643 3.19127C3.04838 3.18854 3.02665 3.18488 3.02397 3.14679C3.02133 3.10865 3.04238 3.10197 3.05776 3.09713ZM6.17924 7.71373L6.17875 6.53707H7.04814V7.27662C7.04814 7.51764 6.85205 7.71378 6.61093 7.71378H6.17924V7.71373ZM6.98525 10.1671C6.9664 9.86886 6.71855 9.63527 6.42104 9.63527C6.28779 9.63527 6.17939 9.52687 6.17939 9.39366V8.44615H6.61093C7.25581 8.44615 7.78051 7.9215 7.78051 7.27662V6.53707H13.2194V7.27662C13.2194 7.9215 13.7441 8.44615 14.389 8.44615H14.8206V9.39366C14.8206 9.52687 14.7122 9.63527 14.5789 9.63527C14.2814 9.63527 14.0335 9.86886 14.0147 10.1671C13.898 12.0162 12.3542 13.4647 10.4999 13.4647C8.6457 13.4647 7.1019 12.0162 6.98525 10.1671ZM10.5 14.197C11.1513 14.197 11.7704 14.0481 12.3251 13.7833V14.0154C12.3251 14.6415 12.2406 15.2591 12.078 15.8548C11.0828 16.0446 9.95761 16.0523 8.92202 15.8548C8.75937 15.2592 8.6749 14.6416 8.6749 14.0154C8.6749 14.0076 8.67382 14.0001 8.67334 13.9924C8.67324 13.9909 8.67338 13.9894 8.67329 13.9879V13.7826C9.22841 14.0478 9.84804 14.197 10.5 14.197Z" fill="black"/>
</svg>

<svg width="21" height="25" fill="none" xmlns="http://www.w3.org/2000/svg"><path d="M17.717 16.333l-1.467-.43-3.193-2.086v-.478a4.248 4.248 0 001.677-2.984.976.976 0 00.819-.961V6.401a.722.722 0 00.301-.59V4.29l2.203-.376a.77.77 0 00.648-.715.77.77 0 00-.542-.799L10.736.037a.777.777 0 00-.474 0L2.836 2.399a.77.77 0 00-.543.799.771.771 0 00.3.565v1.991h-.019a.76.76 0 00-.758.759V7.5l-.49 2.874a.815.815 0 00.804.952h1.658a.815.815 0 00.803-.952L4.101 7.5v-.988a.76.76 0 00-.758-.759h-.018V3.98l1.82.31v1.52c0 .241.118.456.301.589l.001 1.68v1.314c0 .484.355.887.819.961a4.25 4.25 0 001.675 2.983v.48l-3.192 2.085-1.466.43a3.724 3.724 0 00-2.676 3.575V21a.366.366 0 00.732 0v-1.092c0-1.32.885-2.5 2.15-2.872l1.367-.401 5.457 3.243a.37.37 0 00.374 0l5.458-3.243 1.366.4a3.01 3.01 0 012.15 2.873v3.537c0 .454-.37.823-.823.823h-1.614v-1.579a.366.366 0 10-.732 0v1.579H4.507v-1.579a.366.366 0 10-.733 0v1.579H2.162a.824.824 0 01-.823-.823v-.734a.366.366 0 00-.732 0v.734c0 .857.697 1.555 1.555 1.555h16.676c.858 0 1.555-.698 1.555-1.555v-3.537a3.724 3.724 0 00-2.676-3.575zm-13.93-5.739H2.13a.083.083 0 01-.082-.096l.443-2.6h.935l.443 2.6a.083.083 0 01-.082.096zM3.37 6.513v.653h-.82v-.653c0-.015.01-.027.025-.027h.769c.014 0 .026.012.026.027zM9.19 18.22l.146.224-3.739-2.221 2.373-1.55a7.692 7.692 0 001.22 3.547zm-.002-1.58a9.414 9.414 0 002.624 0c-.166.41-.372.805-.616 1.18l-.696 1.07-.696-1.07a6.994 6.994 0 01-.616-1.18zm2.622 1.58a7.69 7.69 0 001.22-3.547l2.373 1.55-3.739 2.221.146-.224zm2.142-11.684h.868v1.177h-.431a.438.438 0 01-.437-.437v-.74zM3.058 3.097L10.485.735a.048.048 0 01.029 0l7.427 2.362c.015.005.036.012.034.05-.003.038-.025.042-.04.044l-2.456.418-.922-.114a.366.366 0 00-.09.727l.655.081v1.502H5.878V4.302l3.79-.469a6.783 6.783 0 011.663 0l1.434.178a.366.366 0 00.09-.727l-1.434-.177a7.513 7.513 0 00-1.843 0L5.52 3.61l-2.456-.42c-.016-.002-.037-.006-.04-.044-.003-.038.018-.045.034-.05zm3.121 4.617V6.537h.87v.74a.438.438 0 01-.438.437h-.432zm.806 2.453a.567.567 0 00-.564-.532.242.242 0 01-.242-.241v-.948h.432a1.17 1.17 0 001.17-1.17v-.739h5.438v.74c0 .644.525 1.17 1.17 1.17h.432v.947a.242.242 0 01-.242.241.567.567 0 00-.564.532 3.527 3.527 0 01-3.515 3.298 3.527 3.527 0 01-3.515-3.298zm3.515 4.03c.651 0 1.27-.149 1.825-.414v.232c0 .627-.084 1.244-.247 1.84a8.65 8.65 0 01-3.156 0 6.978 6.978 0 01-.247-1.84l-.002-.023v-.209a4.228 4.228 0 001.827.414z" fill="#000"/></svg>
